public/avatar/hat/31.svg

<svg xmlns:xlink="http://www.w3.org/1999/xlink" height="92.9" width="100.7" xmlns="http://www.w3.org/2000/svg"><use height="28.95" transform="translate(12.3 38.2)" width="51.15" xlink:href="#a"/><defs><g id="a"><path d="M16 11.75Q8.35 8.25 1.25.9 8.5 10.05 15.7 15.15l-.75 1.75Q5.7 11.2-.1 2-10.9 12.4-16 13.25q-.2-1.55.15-3.2l.05-.25Q-9.85 8.35-.15 1.05L.45.6l-.6.35q-9.1 5.45-14.45 6.1.9-1.5 2.45-2.95l2.2-1.95L-8 .85Q-4.25-1.2.5.5h.05l.1-.05q4.1-2.3 8.95 1.7 5 4.15 6.05 7.95l.35 1.65" fill="#f90" fill-rule="evenodd" transform="translate(26.35 11.55)"/><path d="M15.7 15.15Q8.5 10.05 1.25.9 8.35 8.25 16 11.75q.2 1.75-.3 3.4m-30.3-8.1Q-9.25 6.4-.15.95L.45.6l-.6.45q-9.7 7.3-15.65 8.75.3-1.4 1.2-2.75m-1.4 6.2Q-10.9 12.4-.1 2q-6.55 9.2-14.75 14.9-1-1.7-1.15-3.65" fill="#fc0" fill-rule="evenodd" transform="translate(26.35 11.55)"/><path d="M15.7 15.15q.5-1.65.3-3.4l-.35-1.65Q14.6 6.3 9.6 2.15 4.75-1.85.65.45L.55.5H.5Q-4.25-1.2-8 .85l-1.95 1.3-2.2 1.95q-1.55 1.45-2.45 2.95-.9 1.35-1.2 2.75l-.05.25q-.35 1.65-.15 3.2.15 1.95 1.15 3.65Q-6.65 11.2-.1 2q5.8 9.2 15.05 14.9l.75-1.75Z" fill="none" stroke="#960" stroke-linecap="round" stroke-linejoin="round" transform="translate(26.35 11.55)"/><path d="m-17.75 1.4-.45.3q-6.35-.05-7.65-5.35 2.3-.8 4.7-.65l3.1 5.5q-2.1-5.75 0-11.45 1.8 2 2.4 4.8l-2.1 6.85m5-3.3-.2.1-2.25 1.5q.45-4.05 5.6-7.15-.1 3.7-3.15 5.55" fill="#f90" fill-rule="evenodd" transform="translate(26.35 11.55)"/><path d="m-15.2-.3 2.25-1.5.2-.1 3.9 5.05-1.95 1.3L-13 6.4l-4.75-5 2.55-1.7" fill="#004566" fill-rule="evenodd" transform="translate(26.35 11.55)"/><path d="m-17.75 1.4 2.1-6.85.05.25q2.85-2.75 6-2.5v.25q-5.15 3.1-5.6 7.15l-2.55 1.7m-.3-11.65q-2.1 5.7 0 11.45l-3.1-5.5.6.05q-1.15-3.5 2.4-6.15l.1.15" fill="#fc0" fill-rule="evenodd" transform="translate(26.35 11.55)"/><path d="M-21.15-4.3q-2.4-.15-4.7.65 1.3 5.3 7.65 5.35l.45-.3 2.55-1.7 2.25-1.5.2-.1Q-9.7-3.75-9.6-7.45v-.25q-3.15-.25-6 2.5l-.05-.25q-.6-2.8-2.4-4.8l-.1-.15q-3.55 2.65-2.4 6.15l-.6-.05Z" fill="none" stroke="#960" stroke-linecap="round" stroke-linejoin="round" transform="translate(26.35 11.55)"/><path d="M8.45-8.35q2.9-.05 5.5 2.4v5.2q-1.4-3.8-5.5-7.6m8.35-2.55q3.35 2.6 2.2 6l.45-.05-3.6 4.85q4.85-3.95 8.4-3.85-1.15 4.95-7.6 5l-.45-.3-1.2-.8q2.5-4.5 1.8-10.85" fill="#f90" fill-rule="evenodd" transform="translate(26.35 11.55)"/><path d="m16.2.75-4.7 5L9.3 3.8 7.35 2.5l3.9-5.05.15.1 2.55 1.7.15.1.05.05.85.55 1.2.8" fill="#004566" fill-rule="evenodd" transform="translate(26.35 11.55)"/><path d="M11.25-2.55q-3.2-1.9-3.2-5.8h.4q4.1 3.8 5.5 7.6l-2.55-1.7-.15-.1m2.7-3.4.1.1.15-.55q.65-2.65 2.4-4.65l.2.15Q17.5-4.55 15-.05l-.85-.55-.05-.05-.15-.1v-5.2m5.5 1q2.45-.2 4.85.65v.05l-.05.3q-3.55-.1-8.4 3.85l3.6-4.85" fill="#fc0" fill-rule="evenodd" transform="translate(26.35 11.55)"/><path d="M11.25-2.55q-3.2-1.9-3.2-5.8h.4q2.9-.05 5.5 2.4l.1.1.15-.55q.65-2.65 2.4-4.65l.2.15q3.35 2.6 2.2 6l.45-.05q2.45-.2 4.85.65v.05m-.05.3q-1.15 4.95-7.6 5l-.45-.3-1.2-.8-.85-.55m-2.9-1.95.15.1 2.55 1.7" fill="none" stroke="#960" stroke-linecap="round" stroke-linejoin="round" transform="translate(26.35 11.55)"/></g></defs></svg>

<?xml version="1.0" encoding="UTF-8" standalone="no"?>
<svg xmlns:xlink="http://www.w3.org/1999/xlink" height="92.9px" width="100.7px" xmlns="http://www.w3.org/2000/svg">
  <g transform="matrix(1.0, 0.0, 0.0, 1.0, 38.65, 49.75)">
    <use height="28.95" transform="matrix(1.0, 0.0, 0.0, 1.0, -26.35, -11.55)" width="51.15" xlink:href="#shape0"/>
  </g>
  <defs>
    <g id="shape0" transform="matrix(1.0, 0.0, 0.0, 1.0, 26.35, 11.55)">
      <path d="M16.0 11.75 Q8.35 8.25 1.25 0.9 8.5 10.05 15.7 15.15 L14.95 16.9 Q5.7 11.2 -0.1 2.0 -10.9 12.4 -16.0 13.25 -16.2 11.7 -15.85 10.05 L-15.8 9.8 Q-9.85 8.35 -0.15 1.05 L0.45 0.6 -0.15 0.95 Q-9.25 6.4 -14.6 7.05 -13.7 5.55 -12.15 4.1 L-9.95 2.15 -8.0 0.85 Q-4.25 -1.2 0.5 0.5 L0.55 0.5 0.65 0.45 Q4.75 -1.85 9.6 2.15 14.6 6.3 15.65 10.1 L16.0 11.75" fill="#ff9900" fill-rule="evenodd" stroke="none"/>
      <path d="M15.7 15.15 Q8.5 10.05 1.25 0.9 8.35 8.25 16.0 11.75 16.2 13.5 15.7 15.15 M-14.6 7.05 Q-9.25 6.4 -0.15 0.95 L0.45 0.6 -0.15 1.05 Q-9.85 8.35 -15.8 9.8 -15.5 8.4 -14.6 7.05 M-16.0 13.25 Q-10.9 12.4 -0.1 2.0 -6.65 11.2 -14.85 16.9 -15.85 15.2 -16.0 13.25" fill="#ffcc00" fill-rule="evenodd" stroke="none"/>
      <path d="M15.7 15.15 Q16.2 13.5 16.0 11.75 L15.65 10.1 Q14.6 6.3 9.6 2.15 4.75 -1.85 0.65 0.45 L0.55 0.5 0.5 0.5 Q-4.25 -1.2 -8.0 0.85 L-9.95 2.15 -12.15 4.1 Q-13.7 5.55 -14.6 7.05 -15.5 8.4 -15.8 9.8 L-15.85 10.05 Q-16.2 11.7 -16.0 13.25 -15.85 15.2 -14.85 16.9 -6.65 11.2 -0.1 2.0 5.7 11.2 14.95 16.9 L15.7 15.15 Z" fill="none" stroke="#996600" stroke-linecap="round" stroke-linejoin="round" stroke-width="1.0"/>
      <path d="M-17.75 1.4 L-18.2 1.7 Q-24.55 1.65 -25.85 -3.65 -23.55 -4.45 -21.15 -4.3 L-18.05 1.2 Q-20.15 -4.55 -18.05 -10.25 -16.25 -8.25 -15.65 -5.45 L-17.75 1.4 M-12.75 -1.9 L-12.95 -1.8 -15.2 -0.3 Q-14.75 -4.35 -9.6 -7.45 -9.7 -3.75 -12.75 -1.9" fill="#ff9900" fill-rule="evenodd" stroke="none"/>
      <path d="M-15.2 -0.3 L-12.95 -1.8 -12.75 -1.9 -8.85 3.15 -10.8 4.45 -13.0 6.4 -17.75 1.4 -15.2 -0.3" fill="#004566" fill-rule="evenodd" stroke="none"/>
      <path d="M-17.75 1.4 L-15.65 -5.45 -15.6 -5.2 Q-12.75 -7.95 -9.6 -7.7 L-9.6 -7.45 Q-14.75 -4.35 -15.2 -0.3 L-17.75 1.4 M-18.05 -10.25 Q-20.15 -4.55 -18.05 1.2 L-21.15 -4.3 -20.55 -4.25 Q-21.7 -7.75 -18.15 -10.4 L-18.05 -10.25" fill="#ffcc00" fill-rule="evenodd" stroke="none"/>
      <path d="M-21.15 -4.3 Q-23.55 -4.45 -25.85 -3.65 -24.55 1.65 -18.2 1.7 L-17.75 1.4 -15.2 -0.3 -12.95 -1.8 -12.75 -1.9 Q-9.7 -3.75 -9.6 -7.45 L-9.6 -7.7 Q-12.75 -7.95 -15.6 -5.2 L-15.65 -5.45 Q-16.25 -8.25 -18.05 -10.25 L-18.15 -10.4 Q-21.7 -7.75 -20.55 -4.25 L-21.15 -4.3 Z" fill="none" stroke="#996600" stroke-linecap="round" stroke-linejoin="round" stroke-width="1.0"/>
      <path d="M8.45 -8.35 Q11.35 -8.4 13.95 -5.95 L13.95 -0.75 Q12.55 -4.55 8.45 -8.35 M16.8 -10.9 Q20.15 -8.3 19.0 -4.9 L19.45 -4.95 15.85 -0.1 Q20.7 -4.05 24.25 -3.95 23.1 1.0 16.65 1.05 L16.2 0.75 15.0 -0.05 Q17.5 -4.55 16.8 -10.9" fill="#ff9900" fill-rule="evenodd" stroke="none"/>
      <path d="M16.2 0.75 L11.5 5.75 9.3 3.8 7.35 2.5 11.25 -2.55 11.4 -2.45 13.95 -0.75 14.1 -0.65 14.15 -0.6 15.0 -0.05 16.2 0.75" fill="#004566" fill-rule="evenodd" stroke="none"/>
      <path d="M11.25 -2.55 Q8.05 -4.45 8.05 -8.35 L8.45 -8.35 Q12.55 -4.55 13.95 -0.75 L11.4 -2.45 11.25 -2.55 M13.95 -5.95 L14.05 -5.85 14.2 -6.4 Q14.85 -9.05 16.6 -11.05 L16.8 -10.9 Q17.5 -4.55 15.0 -0.05 L14.15 -0.6 14.1 -0.65 13.95 -0.75 13.95 -5.95 M19.45 -4.95 Q21.9 -5.15 24.3 -4.3 L24.3 -4.25 24.25 -3.95 Q20.7 -4.05 15.85 -0.1 L19.45 -4.95" fill="#ffcc00" fill-rule="evenodd" stroke="none"/>
      <path d="M11.25 -2.55 Q8.05 -4.45 8.05 -8.35 L8.45 -8.35 Q11.35 -8.4 13.95 -5.95 L14.05 -5.85 14.2 -6.4 Q14.85 -9.05 16.6 -11.05 L16.8 -10.9 Q20.15 -8.3 19.0 -4.9 L19.45 -4.95 Q21.9 -5.15 24.3 -4.3 L24.3 -4.25 M24.25 -3.95 Q23.1 1.0 16.65 1.05 L16.2 0.75 15.0 -0.05 14.15 -0.6 M11.25 -2.55 L11.4 -2.45 13.95 -0.75" fill="none" stroke="#996600" stroke-linecap="round" stroke-linejoin="round" stroke-width="1.0"/>
    </g>
  </defs>
</svg>
